X:9717
%9954
T:Lover's Waltz
M:3/4
L:1/8
R:Waltz
C:Jay Ungar & Molly Mason
S:Bill Mattieson's "The Waltz Book"
Z:posted by John Erdman 6/97
K:Cmaj
|:G,CE
%Error : Bar 1 is 3/8 not 3/4
|"C"G3 G EC|"F"A,3 G, F,E,|"C"(G,6|G,3) G, CE|"C"G3 G EC|"F"A,3 G, F,E,|
"Dm"(G,6|"G7"G,3) G, A,C|"Dm"D3 C DE|"F"D C3 A,G,|"C"(G,6|G,3) G, A,C|
"F"D3 C DE|"Dm"D C3 A,G,|"G"(G4 G)A|G4 CB,|"C"C4 CB,|"Dm7"C4 CB,|
"C"C3 C CB,|"F"C2 F3 E|
%Error : Guitar chord name not properly closed
"C"
